picto/metro-right-fr-framed.svg

<svg class="color-immutable" width="30" height="30" viewBox="0 0 30 30" fill="none" xmlns="http://www.w3.org/2000/svg"><path d="M30 0H0V30H30V0Z" fill="#2D327D"/><path d="M25.5 3C26.325 3 27 3.675 27 4.5V25.5C27 26.325 26.325 27 25.5 27H4.5C3.675 27 3 26.325 3 25.5V4.5C3 3.675 3.675 3 4.5 3H25.5ZM25.5 2.625H4.5C3.46613 2.625 2.625 3.46613 2.625 4.5V25.5C2.625 26.5339 3.46613 27.375 4.5 27.375H25.5C26.5339 27.375 27.375 26.5339 27.375 25.5V4.5C27.375 3.46613 26.5339 2.625 25.5 2.625Z" fill="white"/><path d="M8.64237 6V8.24865H8.17632L8.19327 6.53985L7.62574 8.24865H7.23972L6.66297 6.58755L6.67992 8.24865H6.21387V6H6.91219L7.44132 7.61655L7.95027 6H8.64237Z" fill="white"/><path d="M10.5466 7.72575C10.523 7.8201 10.4804 7.90875 10.4189 7.99185C10.2713 8.19383 10.059 8.29485 9.78219 8.29485C9.53199 8.29485 9.33151 8.21588 9.18076 8.058C9.10696 7.98113 9.05056 7.88828 9.01156 7.7796C8.96949 7.66373 8.94849 7.54275 8.94849 7.4166C8.94849 7.17255 9.01876 6.9675 9.15924 6.80138C9.31614 6.61575 9.51916 6.52298 9.76831 6.52298C9.96931 6.52298 10.1405 6.585 10.2821 6.70905C10.3836 6.79823 10.4574 6.90825 10.5035 7.03898C10.5497 7.1697 10.5728 7.33403 10.5728 7.53195H9.40231C9.40644 7.614 9.41926 7.68218 9.44079 7.73655C9.50131 7.88318 9.61614 7.95653 9.78534 7.95653C9.86836 7.95653 9.93609 7.9383 9.98836 7.90193C10.0406 7.86555 10.0837 7.80683 10.1176 7.72583H10.5466V7.72575ZM10.1174 7.23203C10.1093 7.15103 10.0908 7.08383 10.0621 7.0305C10.0334 6.97823 9.99264 6.93668 9.93984 6.90593C9.88704 6.87518 9.82936 6.8598 9.76681 6.8598C9.66736 6.8598 9.58531 6.8931 9.52074 6.95978C9.45616 7.02645 9.41769 7.1172 9.40539 7.23203H10.1174ZM10.2636 5.93078L9.80986 6.38453H9.50994L9.79291 5.93078H10.2636Z" fill="white"/><path d="M11.714 6.56602V6.88132H11.3803V7.6704C11.3803 7.76475 11.389 7.82475 11.4064 7.85032C11.4321 7.88722 11.4895 7.90567 11.5787 7.90567C11.6136 7.90567 11.6587 7.90312 11.7141 7.89795V8.2548C11.6136 8.26605 11.5213 8.27175 11.4373 8.27175C11.3101 8.27175 11.2132 8.25742 11.1466 8.2287C11.043 8.18257 10.9784 8.0985 10.9528 7.97647C10.9415 7.9242 10.9358 7.81597 10.9358 7.65195V6.88132H10.6636V6.56602H10.9358V6.17227H11.3803V6.56602H11.714Z" fill="white"/><path d="M13.0152 6.54142V6.97365C12.9434 6.9603 12.8855 6.95362 12.8414 6.95362C12.6753 6.95362 12.5532 7.02337 12.4753 7.1628C12.4312 7.24072 12.4092 7.37092 12.4092 7.55347V8.24872H11.9631V6.5691H12.3876V6.87517C12.5086 6.64755 12.6845 6.5337 12.9152 6.5337C12.9439 6.5337 12.9772 6.53625 13.0152 6.54142Z" fill="white"/><path d="M14.0043 6.52297C14.2483 6.52297 14.4477 6.60397 14.6026 6.76597C14.7554 6.92595 14.8318 7.13925 14.8318 7.4058C14.8318 7.68165 14.7503 7.90155 14.5872 8.06565C14.4345 8.21842 14.2356 8.29485 13.9905 8.29485C13.729 8.29485 13.5208 8.20972 13.366 8.03955C13.2183 7.87755 13.1445 7.66732 13.1445 7.40895C13.1445 7.15462 13.2163 6.948 13.3599 6.78907C13.5187 6.61162 13.7335 6.52297 14.0043 6.52297ZM13.9812 6.87052C13.8633 6.87052 13.7694 6.91822 13.6997 7.01355C13.629 7.10992 13.5936 7.2417 13.5936 7.40887C13.5936 7.5822 13.6284 7.71495 13.6982 7.80727C13.77 7.90057 13.8679 7.94722 13.992 7.94722C14.1078 7.94722 14.1996 7.9047 14.2673 7.81957C14.3442 7.72522 14.3826 7.58835 14.3826 7.40887C14.3826 7.24072 14.3488 7.11 14.2811 7.0167C14.2104 6.91927 14.1104 6.87052 13.9812 6.87052Z" fill="white"/><path d="M24 23.25H6V24H24V23.25Z" fill="white"/><path d="M23.4221 11.7548C23.356 11.036 23.0583 10.5761 22.2205 10.5761H16.8098H6V11.2511H8.40112C8.60835 11.2511 8.77627 11.4192 8.77627 11.6261V17.1848C8.77627 17.3917 8.60835 17.5596 8.40112 17.5596H6V22.5002H23.6236C23.8307 22.5002 23.9986 22.3323 23.9986 22.1252V17.8439C23.9986 17.7847 23.4221 11.7548 23.4221 11.7548ZM10.7132 21.1724C10.7132 21.4911 10.4546 21.7499 10.1357 21.7499C9.81713 21.7499 9.55823 21.4912 9.55823 21.1724V11.7542C9.55823 11.4353 9.81713 11.1767 10.1357 11.1767C10.4546 11.1767 10.7132 11.4353 10.7132 11.7542V21.1724ZM12.65 21.1724C12.65 21.4911 12.3914 21.7499 12.0726 21.7499C11.754 21.7499 11.4951 21.4912 11.4951 21.1724V11.7542C11.4951 11.4353 11.754 11.1767 12.0726 11.1767C12.3914 11.1767 12.65 11.4353 12.65 11.7542V21.1724ZM17.9797 17.1848C17.9797 17.3917 17.8118 17.5596 17.6048 17.5596H13.807C13.5998 17.5596 13.4319 17.3917 13.4319 17.1848V11.6261C13.4319 11.4191 13.5998 11.2511 13.807 11.2511H17.6048C17.8118 11.2511 17.9797 11.4192 17.9797 11.6261V17.1848ZM22.9488 17.5274L19.0144 17.5596C18.8071 17.5596 18.6392 17.3917 18.6392 17.1848V11.6261C18.6392 11.4191 18.8071 11.2511 19.0144 11.2511H22.4783C22.6853 11.2511 22.8268 11.3843 22.8533 11.6261L23.2937 17.156C23.3144 17.3724 23.1558 17.5274 22.9488 17.5274Z" fill="white"/></svg>

<svg class="color-immutable" width="30" height="30" viewBox="0 0 30 30" fill="none" xmlns="http://www.w3.org/2000/svg"><g clip-path="url(#a)"><path d="M30 0H0v30h30V0Z" fill="#2D327D"/><path d="M25.5 3c.825 0 1.5.675 1.5 1.5v21c0 .825-.675 1.5-1.5 1.5h-21c-.825 0-1.5-.675-1.5-1.5v-21C3 3.675 3.675 3 4.5 3h21Zm0-.375h-21A1.877 1.877 0 0 0 2.625 4.5v21c0 1.034.841 1.875 1.875 1.875h21a1.877 1.877 0 0 0 1.875-1.875v-21A1.877 1.877 0 0 0 25.5 2.625Z" fill="#fff"/><path d="M8.642 6v2.249h-.466l.017-1.71-.567 1.71H7.24l-.577-1.661.017 1.66h-.466V6h.698l.53 1.617L7.95 6h.692ZM10.547 7.726a.751.751 0 0 1-.128.266c-.148.202-.36.303-.637.303-.25 0-.45-.08-.601-.237a.773.773 0 0 1-.17-.278 1.055 1.055 0 0 1-.063-.363c0-.244.07-.45.211-.616a.76.76 0 0 1 .61-.278.753.753 0 0 1 .735.516c.046.13.069.295.069.493h-1.17a.65.65 0 0 0 .038.205c.06.146.175.22.344.22.083 0 .151-.019.203-.055a.391.391 0 0 0 .13-.176h.429Zm-.43-.494a.537.537 0 0 0-.055-.202.338.338 0 0 0-.295-.17c-.1 0-.182.033-.246.1a.446.446 0 0 0-.116.272h.712Zm.147-1.301-.454.454h-.3l.283-.454h.47ZM11.714 6.566v.315h-.334v.79c0 .094.009.154.026.18.026.036.083.055.173.055.035 0 .08-.003.135-.008v.357c-.1.011-.193.017-.277.017a.764.764 0 0 1-.29-.043.332.332 0 0 1-.194-.253 1.924 1.924 0 0 1-.017-.324v-.77h-.272v-.316h.272v-.394h.444v.394h.334ZM13.015 6.541v.433a.997.997 0 0 0-.174-.02.39.39 0 0 0-.366.209c-.044.078-.066.208-.066.39v.696h-.446v-1.68h.425v.306c.12-.227.296-.341.527-.341.029 0 .062.002.1.007ZM14.004 6.523c.244 0 .444.081.599.243.152.16.229.373.229.64 0 .276-.082.496-.245.66a.807.807 0 0 1-.596.229c-.262 0-.47-.085-.625-.255-.148-.162-.221-.373-.221-.631 0-.254.071-.461.215-.62.159-.177.373-.266.644-.266Zm-.023.348a.331.331 0 0 0-.281.143.656.656 0 0 0-.106.395c0 .173.034.306.104.398a.35.35 0 0 0 .294.14.333.333 0 0 0 .275-.127c.077-.095.116-.232.116-.411 0-.168-.034-.299-.102-.392a.349.349 0 0 0-.3-.146ZM24 23.25H6V24h18v-.75ZM23.422 11.755c-.066-.719-.364-1.179-1.201-1.179H6v.675h2.401c.207 0 .375.168.375.375v5.559a.375.375 0 0 1-.375.375H6v4.94h17.624a.375.375 0 0 0 .375-.375v-4.281c0-.06-.577-6.09-.577-6.09Zm-12.709 9.417a.578.578 0 0 1-1.155 0v-9.418a.578.578 0 0 1 1.155 0v9.418Zm1.937 0a.578.578 0 0 1-1.155 0v-9.418a.578.578 0 0 1 1.155 0v9.418Zm5.33-3.987a.375.375 0 0 1-.375.375h-3.798a.375.375 0 0 1-.375-.375v-5.559c0-.207.168-.375.375-.375h3.798c.207 0 .375.168.375.375v5.559Zm4.969.342-3.935.033a.375.375 0 0 1-.375-.375v-5.559c0-.207.168-.375.375-.375h3.464c.207 0 .349.133.375.375l.44 5.53c.021.216-.137.371-.344.371Z" fill="#fff"/></g><defs><clipPath id="a"><path fill="#fff" d="M0 0h30v30H0z"/></clipPath></defs></svg>
